src/assets/duotone/Filter.svg

<svg width="24" height="24" viewBox="0 0 24 24"  xmlns="http://www.w3.org/2000/svg">
<path opacity="0.4" d="M20.6001 4.09961V6.29961C20.6001 7.09961 20.1001 8.09961 19.6001 8.59961L15.3001 12.3996C14.7001 12.8996 14.3001 13.8996 14.3001 14.6996V18.9996C14.3001 19.5996 13.9001 20.3996 13.4001 20.6996L12.0001 21.5996C10.7001 22.3996 8.9001 21.4996 8.9001 19.8996V14.5996C8.9001 13.8996 8.5001 12.9996 8.1001 12.4996L7.1001 11.4496L12.9201 2.09961H18.6001C19.7001 2.09961 20.6001 2.99961 20.6001 4.09961Z" />
<path d="M11.2999 2.09961L6.1199 10.4096L4.2999 8.49961C3.7999 7.99961 3.3999 7.09961 3.3999 6.49961V4.19961C3.3999 2.99961 4.2999 2.09961 5.3999 2.09961H11.2999Z" />
</svg>

<?xml version="1.0" encoding="UTF-8"?>
<svg width="24" height="24" viewBox="0 0 24 24" xmlns="http://www.w3.org/2000/svg">
 <path d="m20.6 4.0996v2.2c0 0.8-0.5 1.8-1 2.3l-4.3 3.8c-0.6 0.5-1 1.5-1 2.3v4.3c0 0.6-0.4 1.4-0.9 1.7l-1.4 0.9c-1.3 0.8-3.1-0.1-3.1-1.7v-5.3c0-0.7-0.4-1.6-0.8-2.1l-1-1.05 5.82-9.35h5.68c1.1 0 2 0.9 2 2z" opacity=".4"/>
 <path d="m11.3 2.0996-5.18 8.31-1.82-1.91c-0.5-0.5-0.9-1.4-0.9-2v-2.3c0-1.2 0.9-2.1 2-2.1h5.9z"/>
</svg>
